korla/apps/scalable/system-file-manager-root.svg

<!DOCTYPE svg  PUBLIC '-//W3C//DTD SVG 1.1//EN'  'http://www.w3.org/Graphics/SVG/1.1/DTD/svg11.dtd'>
<svg style="clip-rule:evenodd;fill-rule:evenodd;stroke-linejoin:round;stroke-miterlimit:1.41421" version="1.1" viewBox="0 0 48 48" xmlns="http://www.w3.org/2000/svg">
 <path d="m17.113 13.208c-0.121-4e-3 -0.267 2e-3 -0.457 2e-3h-12.647c-0.45 0-2.512 2.36-2.512 2.813v1.893c-1e-3 0.019-5e-3 0.037-5e-3 0.056v23.206c0 0.868 0.699 1.568 1.567 1.568h42.087c0.868 0 1.566-0.7 1.566-1.568v-21.56c0-0.868-2.318-3.214-3.186-3.214h-23.51c-0.015-0.02-0.025-0.031-0.041-0.052-0.58-0.781-1.456-1.79-2.027-2.552-0.343-0.5-0.471-0.583-0.834-0.592h-1e-3z" style="fill-opacity:.666667;fill-rule:nonzero"/>
 <path d="m13.127 5.748h-8.333c-1.613 0-3.297 0.809-3.297 2.74v2.938c-1e-3 0.019-6e-3 0.037-6e-3 0.056v28.668c0 0.868 0.7 1.568 1.568 1.568h42.087c0.868 0 1.566-0.7 1.566-1.568v-27.1c0-1.913-1.351-3.136-3.082-3.136-5.037 0-18.107-0.051-20.91-0.051-1.328 0-2.472-1.598-2.472-1.598-1.071-1.072-2.049-2.543-4.4-2.519-0.573 0-2.166 2e-3 -2.721 2e-3z" style="fill-rule:nonzero;fill:url(#_Linear1)"/>
 <defs>
  <linearGradient id="_Linear1" x2="1" gradientTransform="matrix(2.07538e-15,-33.8935,33.8935,2.07538e-15,11.2267,38.4659)" gradientUnits="userSpaceOnUse">
   <stop style="stop-color:rgb(102,15,0)" offset="0"/>
   <stop style="stop-color:rgb(141,37,19)" offset=".44"/>
   <stop style="stop-color:rgb(233,89,64)" offset="1"/>
  </linearGradient>
 </defs>
</svg>

<?xml version="1.0" encoding="UTF-8" standalone="no"?>
<!DOCTYPE svg PUBLIC "-//W3C//DTD SVG 1.1//EN" "http://www.w3.org/Graphics/SVG/1.1/DTD/svg11.dtd">
<svg width="100%" height="100%" viewBox="0 0 48 48" version="1.1" xmlns="http://www.w3.org/2000/svg" xmlns:xlink="http://www.w3.org/1999/xlink" xml:space="preserve" xmlns:serif="http://www.serif.com/" style="fill-rule:evenodd;clip-rule:evenodd;stroke-linejoin:round;stroke-miterlimit:1.41421;">
    <path id="path12" d="M17.113,13.208C16.992,13.204 16.846,13.21 16.656,13.21L4.009,13.21C3.559,13.21 1.497,15.57 1.497,16.023L1.497,17.916C1.496,17.935 1.492,17.953 1.492,17.972L1.492,41.178C1.492,42.046 2.191,42.746 3.059,42.746L45.146,42.746C46.014,42.746 46.712,42.046 46.712,41.178L46.712,19.618C46.712,18.75 44.394,16.404 43.526,16.404L20.016,16.404C20.001,16.384 19.991,16.373 19.975,16.352C19.395,15.571 18.519,14.562 17.948,13.8C17.605,13.3 17.477,13.217 17.114,13.208L17.113,13.208Z" style="fill-opacity:0.666667;fill-rule:nonzero;"/>
    <path id="path14" d="M13.127,5.748L4.794,5.748C3.181,5.748 1.497,6.557 1.497,8.488L1.497,11.426C1.496,11.445 1.491,11.463 1.491,11.482L1.491,40.15C1.491,41.018 2.191,41.718 3.059,41.718L45.146,41.718C46.014,41.718 46.712,41.018 46.712,40.15L46.712,13.05C46.712,11.137 45.361,9.914 43.63,9.914C38.593,9.914 25.523,9.863 22.72,9.863C21.392,9.863 20.248,8.265 20.248,8.265C19.177,7.193 18.199,5.722 15.848,5.746C15.275,5.746 13.682,5.748 13.127,5.748L13.127,5.748Z" style="fill:url(#_Linear1);fill-rule:nonzero;"/>
    <defs>
        <linearGradient id="_Linear1" x1="0" y1="0" x2="1" y2="0" gradientUnits="userSpaceOnUse" gradientTransform="matrix(2.07538e-15,-33.8935,33.8935,2.07538e-15,11.2267,38.4659)"><stop offset="0" style="stop-color:rgb(102,15,0);stop-opacity:1"/><stop offset="0.44" style="stop-color:rgb(141,37,19);stop-opacity:1"/><stop offset="1" style="stop-color:rgb(233,89,64);stop-opacity:1"/></linearGradient>
    </defs>
</svg>
